dist/images/icons/responsivenav.svg

<?xml version="1.0" standalone="no"?>
<!DOCTYPE svg PUBLIC "-//W3C//DTD SVG 1.1//EN" "http://www.w3.org/Graphics/SVG/1.1/DTD/svg11.dtd" >
<svg xmlns="http://www.w3.org/2000/svg">
<metadata>Generated by IcoMoon</metadata>
<defs>
<font id="responsivenav" horiz-adv-x="512">
<font-face units-per-em="512" ascent="480" descent="-32" />
<missing-glyph horiz-adv-x="512" />
<glyph unicode="&#x20;" d="" horiz-adv-x="256" />
<glyph unicode="&#x78;" d="M443.904 366.016c6.24-6.208 6.24-16.416 0-22.624l-124.448-124.512c-6.176-6.208-6.176-16.416 0-22.656l124.384-124.544c6.24-6.208 6.24-16.416 0-22.624l-45.312-45.216c-6.176-6.208-16.384-6.208-22.624 0l-124.32 124.544c-6.208 6.208-16.416 6.208-22.624 0l-124.448-124.448c-6.208-6.24-16.416-6.24-22.624 0l-45.248 45.312c-6.208 6.176-6.208 16.384 0 22.624l124.48 124.448c6.208 6.208 6.208 16.416 0 22.656l-124.384 124.512c-6.208 6.24-6.208 16.416 0 22.624l45.28 45.248c6.208 6.208 16.416 6.208 22.624 0l124.32-124.512c6.208-6.24 16.416-6.24 22.624-0.032l124.416 124.48c6.24 6.176 16.448 6.176 22.624 0l45.28-45.28z" />
<glyph unicode="&#x2261;" d="M438.857 91.428v-36.572q0-7.428-5.428-12.857t-12.857-5.428h-402.286q-7.428 0-12.857 5.428t-5.428 12.857v36.572q0 7.428 5.428 12.857t12.857 5.428h402.286q7.428 0 12.857-5.428t5.428-12.857zM438.857 237.714v-36.572q0-7.428-5.428-12.857t-12.857-5.428h-402.286q-7.428 0-12.857 5.428t-5.428 12.857v36.572q0 7.428 5.428 12.857t12.857 5.429h402.286q7.428 0 12.857-5.428t5.428-12.857zM438.857 384v-36.572q0-7.428-5.428-12.857t-12.857-5.429h-402.286q-7.428 0-12.857 5.428t-5.428 12.857v36.571q0 7.429 5.428 12.857t12.857 5.428h402.286q7.428 0 12.857-5.428t5.428-12.857z" horiz-adv-x="439" />
</font></defs></svg>

<svg xmlns="http://www.w3.org/2000/svg"><defs><font id="responsivenav" horiz-adv-x="512"><font-face units-per-em="512" ascent="480" descent="-32"/><glyph horiz-adv-x="256"/><glyph unicode="x" d="M443.904 366.016c6.24-6.208 6.24-16.416 0-22.624L319.456 218.88c-6.176-6.208-6.176-16.416 0-22.656L443.84 71.68c6.24-6.208 6.24-16.416 0-22.624L398.528 3.84c-6.176-6.208-16.384-6.208-22.624 0l-124.32 124.544c-6.208 6.208-16.416 6.208-22.624 0L104.512 3.936c-6.208-6.24-16.416-6.24-22.624 0L36.64 49.248c-6.208 6.176-6.208 16.384 0 22.624L161.12 196.32c6.208 6.208 6.208 16.416 0 22.656L36.736 343.488c-6.208 6.24-6.208 16.416 0 22.624l45.28 45.248c6.208 6.208 16.416 6.208 22.624 0l124.32-124.512c6.208-6.24 16.416-6.24 22.624-.032L376 411.296c6.24 6.176 16.448 6.176 22.624 0l45.28-45.28z"/><glyph unicode="≡" d="M438.857 91.428V54.856q0-7.428-5.428-12.857t-12.857-5.428H18.286q-7.428 0-12.857 5.428T.001 54.856v36.572q0 7.428 5.428 12.857t12.857 5.428h402.286q7.428 0 12.857-5.428t5.428-12.857zm0 146.286v-36.572q0-7.428-5.428-12.857t-12.857-5.428H18.286q-7.428 0-12.857 5.428T.001 201.142v36.572q0 7.428 5.428 12.857T18.286 256h402.286q7.428 0 12.857-5.428t5.428-12.857zm0 146.286v-36.572q0-7.428-5.428-12.857t-12.857-5.429H18.286q-7.428 0-12.857 5.428T.001 347.427v36.571q0 7.429 5.428 12.857t12.857 5.428h402.286q7.428 0 12.857-5.428t5.428-12.857z" horiz-adv-x="439"/></font></defs></svg>
